X: 4
T: Maid Behind The Bar, The
Z: Bryce
S: https://thesession.org/tunes/64#setting21781
R: reel
M: 4/4
L: 1/8
K: Dmaj
zE|:"D"FAAB AFED|"D"FAAB A2de|"Bm"fBBA Bcde|"Em"fdgf "A"efdB|
"D"FAAB AFED|"D"FAAB A2de|"Bm"fBBA "G"BcdB|[1"A"AFEF "D"D2zE:|[2"A"AFEF "D"D2de|]
|:"D"faag fdde|"D"fdad fdd2|"Em"efga beef|"Em"gebe "A"geeg|
"D"fgaf b2af|"D"defd "A"e2de|"Bm"fBBA "G"BcdB|[1"A"AFEF "D"D2de:|[2"A"AFEF "D"D4|]

